Yaru++/apps/scalable/sayonara.svg

<svg enable-background="new" height="256" viewBox="0 0 256 256" width="256" xmlns="http://www.w3.org/2000/svg" xmlns:xlink="http://www.w3.org/1999/xlink">
  <linearGradient id="linearGradient4358" gradientTransform="matrix(0 -1 1 0 -10.0054 585.9946)" gradientUnits="userSpaceOnUse" x1="88" x2="488" y1="88" y2="488">
    <stop offset="0" stop-opacity=".588235"/>
    <stop offset=".88" stop-opacity="0"/>
    <stop offset="1"/>
  </linearGradient>
  <filter id="filter4380" color-interpolation-filters="sRGB" height="1.088" width="1.106" x="-.05" y="-.04">
    <feGaussianBlur stdDeviation="8.48"/>
  </filter>
  <filter id="filter4346" color-interpolation-filters="sRGB" height="1.022" width="1.026" x="-.01" y="-.01">
    <feGaussianBlur stdDeviation="2.12"/>
  </filter>
  <path d="m189.84323 74c-70.59344 0-78.18921 7.250835-77.84323 77.98706v146.01294 146.01294c-.34598 70.73623 7.24979 77.98706 77.84323 77.98706h196.31354c70.59344 0 76.00668-7.27384 77.84323-77.98706v-146.01294-146.01294c0-70.737067-7.24979-77.98706-77.84323-77.98706z" filter="url(#filter4346)" opacity=".1" transform="matrix(0 .5 -.5 0 276.82523 -15.328148)"/>
  <path d="m189.84323 74c-70.59344 0-78.18921 7.250835-77.84323 77.98706v146.01294 146.01294c-.34598 70.73623 7.24979 77.98706 77.84323 77.98706h196.31354c70.59344 0 77.84323-7.24999 77.84323-77.98706v-146.01294-146.01294c0-70.737067-7.24979-77.98706-77.84323-77.98706z" fill="url(#linearGradient4358)" filter="url(#filter4380)" opacity=".3" transform="matrix(0 .5 -.5 0 276.82523 -15.328148)"/>
  <path d="m241.83043 77.478254c0-36.098811-3.69016-39.983003-39.68984-39.806081h-74.31016-74.310154c-35.99969-.176922-39.68984 3.70727-39.68984 39.806081v100.387326c0 36.09881 3.68973 39.80608 39.68984 39.80608h74.310154 74.31016c36.00011 0 39.68984-3.70727 39.68984-39.80608z" opacity=".1"/>
  <path d="m239.82523 176.74484c0 35.29673-3.62542 39.09461-38.99353 38.92162h-73.00647-73.006464c-35.36812.17299-38.99353-3.62489-38.99353-38.92162v-98.156766c0-35.296716 3.625-38.921616 38.99353-38.921616h73.006464 73.00647c35.36853 0 38.99353 3.6249 38.99353 38.921616z" fill="#4d4d4d"/>
  <path d="m54.81817 39.667201c-35.36853 0-38.992187 3.623202-38.992187 38.919923v98.158206c0 .0882.0019.16224.002.25v-96.410156c-.000047-35.29672 3.625564-38.921879 38.994094-38.921879h73.005853 73.00586c35.28016 0 38.97394 3.621035 38.99219 38.671879v-1.74805c0-35.296721-3.62561-38.919923-38.99414-38.919923h-73.00586z" fill="#fff" opacity=".3"/>
  <path d="m15.825983 174.74533v2c0 35.29673 3.624067 39.09487 38.992187 38.92188h73.00781 73.00586c35.36811.17299 38.99414-3.62515 38.99414-38.92188v-2c0 35.29673-3.62603 39.09487-38.99414 38.92188h-73.00586-73.00781c-35.36812.17299-38.992187-3.62515-38.992187-38.92188z" opacity=".2"/>
  <g stroke-width="3.7797136">
    <circle cx="68.29852688085" cy="86.6781336775" fill="#fff" r="15.4854866192"/>
    <rect fill="#fff" height="32.2636352896" rx="15.4854866192" width="104.5355390352" x="98.30189343765" y="70.2439389447"/>
    <circle cx="68.29852688085" cy="127.9790641847" fill="#fff" r="15.4854866192"/>
    <rect fill="#fff" height="32.2636352896" rx="15.4854866192" width="104.5355390352" x="98.30189343765" y="111.5562085927"/>
    <circle cx="68.29852688085" cy="169.2762149783" fill="#f66a08" r="15.4854866192"/>
    <rect fill="#f66a08" height="32.2636352896" rx="15.4854866192" width="104.5355390352" x="98.30189343765" y="152.8306811047"/>
  </g>
  <path d="m227.82524 172.23762c0 31.51494-3.23699 34.9059-34.81566 34.75145h-65.18435-65.184349c-31.57868.15445-34.815653-3.23651-34.815653-34.75145v-87.639967c0-31.514926 3.236607-34.751444 34.815653-34.751444h65.184349 65.18435c31.57905 0 34.81566 3.236518 34.81566 34.751444z" fill="none" opacity=".4" stroke="#fff" stroke-width=".892857"/>
</svg>

<svg xmlns="http://www.w3.org/2000/svg" xmlns:xlink="http://www.w3.org/1999/xlink" style="enable-background:new" width="256" height="256" version="1.0" viewBox="0 0 256 256">
 <title id="title4162">
  Adwaita Icon Template
 </title>
 <defs>
  <linearGradient id="linearGradient965" x1="48" x2="464" y1="44" y2="44" gradientUnits="userSpaceOnUse">
   <stop id="stop989" offset="0" style="stop-color:#77767b"/>
   <stop id="stop991" offset=".05" style="stop-color:#c0bfbc"/>
   <stop id="stop993" offset=".1" style="stop-color:#9a9996"/>
   <stop id="stop995" offset=".9" style="stop-color:#9a9996"/>
   <stop id="stop997" offset=".95" style="stop-color:#c0bfbc"/>
   <stop id="stop999" offset="1" style="stop-color:#77767b"/>
  </linearGradient>
  <radialGradient id="radialGradient1030" cx="64" cy="194.19" r="44" gradientTransform="matrix(-4.7273,7.9359e-7,-3.0301e-7,-1.6364,238.55,49.766)" gradientUnits="userSpaceOnUse">
   <stop id="stop1016" offset="0" style="stop-color:#fff"/>
   <stop id="stop1018" offset="1" style="stop-color:#fff;stop-opacity:.094118"/>
  </radialGradient>
  <linearGradient id="linearGradient1950" x1="70.347" x2="70.347" y1="245.4" y2="269.14" gradientUnits="userSpaceOnUse">
   <stop id="stop1944" offset="0" style="stop-color:#2d2839"/>
   <stop id="stop1946" offset="1" style="stop-color:#282433"/>
  </linearGradient>
  <linearGradient id="linearGradient4358" x1="88" x2="488" y1="88" y2="488" gradientTransform="rotate(-90,287.9946,298)" gradientUnits="userSpaceOnUse" xlink:href="#linearGradient4360"/>
  <linearGradient id="linearGradient4360">
   <stop id="stop4362" offset="0" style="stop-color:#000000;stop-opacity:0.58823532"/>
   <stop style="stop-color:#000000;stop-opacity:0" id="stop4364" offset=".88"/>
   <stop id="stop4366" offset="1" style="stop-color:#000000"/>
  </linearGradient>
  <filter style="color-interpolation-filters:sRGB" id="filter4380" width="1.106" height="1.088" x="-.05" y="-.04">
   <feGaussianBlur id="feGaussianBlur4382" stdDeviation="8.48"/>
  </filter>
  <filter style="color-interpolation-filters:sRGB" id="filter4346" width="1.026" height="1.022" x="-.01" y="-.01">
   <feGaussianBlur id="feGaussianBlur4348" stdDeviation="2.12"/>
  </filter>
  <filter id="filter939" width="1.046" height="1.05" x="-.02" y="-.03" style="color-interpolation-filters:sRGB">
   <feGaussianBlur id="feGaussianBlur17" stdDeviation="2.32"/>
  </filter>
  <filter id="filter4569" width="1.023" height="1.025" x="-.01" y="-.01" style="color-interpolation-filters:sRGB">
   <feGaussianBlur id="feGaussianBlur14" stdDeviation="1.16"/>
  </filter>
  <linearGradient id="linearGradient1108" x1="296" x2="296" y1="-212" y2="236" gradientUnits="userSpaceOnUse">
   <stop style="stop-color:#ffffff" id="stop2" offset="0"/>
   <stop style="stop-color:#ffffff;stop-opacity:.09803922" id="stop4" offset=".125"/>
   <stop style="stop-color:#000000;stop-opacity:.09803922" id="stop6" offset=".925"/>
   <stop style="stop-color:#000000;stop-opacity:.49803922" id="stop8" offset="1"/>
  </linearGradient>
  <clipPath id="clipPath1082-3-361">
   <path style="fill:#8c59d9" d="M 361.9375,-212 C 507.2348,-212 528,-191.28677 528,-46.125 V 70.125 C 528,215.28618 507.2348,236 361.9375,236 H 214.0625 C 68.7652,236 48,215.28618 48,70.125 V -46.125 C 48,-191.28677 68.7652,-212 214.0625,-212 Z"/>
  </clipPath>
  <filter id="filter1762" style="color-interpolation-filters:sRGB">
   <feGaussianBlur id="feGaussianBlur29" stdDeviation=".197"/>
  </filter>
  <filter id="filter1750" style="color-interpolation-filters:sRGB">
   <feGaussianBlur id="feGaussianBlur20" stdDeviation=".197"/>
  </filter>
  <filter id="filter1758" style="color-interpolation-filters:sRGB">
   <feGaussianBlur id="feGaussianBlur26" stdDeviation=".197"/>
  </filter>
  <filter id="filter1754" style="color-interpolation-filters:sRGB">
   <feGaussianBlur id="feGaussianBlur23" stdDeviation=".197"/>
  </filter>
  <filter id="filter1947" width="1.085" height="1.111" x="-.04" y="-.06" style="color-interpolation-filters:sRGB">
   <feGaussianBlur id="feGaussianBlur32" stdDeviation=".701"/>
  </filter>
 </defs>
 <path style="opacity:0.1;filter:url(#filter4346)" d="M 189.84323,74 C 119.24979,74 111.65402,81.250835 112,151.98706 V 298 444.01294 C 111.65402,514.74917 119.24979,522 189.84323,522 H 386.15677 C 456.75021,522 462.16345,514.72616 464,444.01294 V 298 151.98706 C 464,81.249993 456.75021,74 386.15677,74 Z" transform="matrix(0,0.5,-0.5,0,276.82523,-15.328148)"/>
 <path d="M 189.84323,74 C 119.24979,74 111.65402,81.250835 112,151.98706 V 298 444.01294 C 111.65402,514.74917 119.24979,522 189.84323,522 H 386.15677 C 456.75021,522 464,514.75001 464,444.01294 V 298 151.98706 C 464,81.249993 456.75021,74 386.15677,74 Z" transform="matrix(0,0.5,-0.5,0,276.82523,-15.328148)" style="opacity:0.3;fill:url(#linearGradient4358);filter:url(#filter4380)"/>
 <path style="opacity:0.1" d="m 241.83043,77.478254 c 0,-36.098811 -3.69016,-39.983003 -39.68984,-39.806081 H 127.83043 53.520276 c -35.99969,-0.176922 -39.68984,3.70727 -39.68984,39.806081 V 177.86558 c 0,36.09881 3.68973,39.80608 39.68984,39.80608 h 74.310154 74.31016 c 36.00011,0 39.68984,-3.70727 39.68984,-39.80608 z"/>
 <path style="fill:#4d4d4d" d="m 239.82523,176.74484 c 0,35.29673 -3.62542,39.09461 -38.99353,38.92162 H 127.82523 54.818766 c -35.36812,0.17299 -38.99353,-3.62489 -38.99353,-38.92162 V 78.588074 c 0,-35.296716 3.625,-38.921616 38.99353,-38.921616 h 73.006464 73.00647 c 35.36853,0 38.99353,3.6249 38.99353,38.921616 z"/>
 <path style="opacity:0.3;fill:#ffffff" d="m 54.81817,39.667201 c -35.36853,0 -38.992187,3.623202 -38.992187,38.919923 v 98.158206 c 0,0.0882 0.0019,0.16224 0.002,0.25 V 80.585174 c -4.7e-5,-35.29672 3.625564,-38.921879 38.994094,-38.921879 h 73.005853 73.00586 c 35.28016,0 38.97394,3.621035 38.99219,38.671879 v -1.74805 c 0,-35.296721 -3.62561,-38.919923 -38.99414,-38.919923 h -73.00586 z"/>
 <path style="opacity:0.2" d="m 15.825983,174.74533 v 2 c 0,35.29673 3.624067,39.09487 38.992187,38.92188 h 73.00781 73.00586 c 35.36811,0.17299 38.99414,-3.62515 38.99414,-38.92188 v -2 c 0,35.29673 -3.62603,39.09487 -38.99414,38.92188 H 127.82598 54.81817 C 19.45005,213.8402 15.825983,210.04206 15.825983,174.74533 Z"/>
 <g transform="matrix(3.7797136,0,0,3.7797136,-281.14707,-854.30166)">
  <g transform="translate(75.25093,-1.5226843)">
   <circle style="fill:#ffffff" cx="17.202" cy="250.478" r="4.097"/>
   <rect style="fill:#ffffff" width="27.657" height="8.536" x="25.14" y="246.13" rx="4.097" ry="4.097"/>
   <circle style="fill:#ffffff" cx="17.202" cy="261.405" r="4.097"/>
   <rect style="fill:#ffffff" width="27.657" height="8.536" x="25.14" y="257.06" rx="4.097" ry="4.097"/>
   <circle style="fill:#f66a08" cx="17.202" cy="272.331" r="4.097"/>
   <rect style="fill:#f66a08" width="27.657" height="8.536" x="25.14" y="267.98" rx="4.097" ry="4.097"/>
  </g>
 </g>
 <path d="m 227.82524,172.23762 c 0,31.51494 -3.23699,34.9059 -34.81566,34.75145 H 127.82523 62.640881 c -31.57868,0.15445 -34.815653,-3.23651 -34.815653,-34.75145 V 84.597653 c 0,-31.514926 3.236607,-34.751444 34.815653,-34.751444 h 65.184349 65.18435 c 31.57905,0 34.81566,3.236518 34.81566,34.751444 z" style="fill:none;stroke:#ffffff;stroke-width:0.89285719;opacity:0.4"/>
</svg>
